packages/core/src/svgs/tokens/branded/ORT.svg

<svg width="24" height="24" viewBox="0 0 24 24" fill="none" xmlns="http://www.w3.org/2000/svg">
<path d="M11.3594 9.24115L12.3418 8.94702L12.6358 9.93528L11.6476 10.2235L11.3594 9.24115Z" fill="#590577"/>
<path d="M11.6116 9.37673L12.1998 9.20032L12.3764 9.7885L11.7881 9.96501L11.6116 9.37673Z" fill="#8D5F90"/>
<path d="M13.2883 9.8354L13.8648 9.66479L14.0353 10.2413L13.4588 10.4119L13.2883 9.8354Z" fill="#590577"/>
<path d="M13.4993 9.95286L13.7522 9.8764L13.8287 10.1294L13.5759 10.2058L13.4993 9.95286Z" fill="#8D5F90"/>
<path fill-rule="evenodd" clip-rule="evenodd" d="M12.1885 13.0236L11.612 13.1883L11.7885 13.7648L12.3591 13.5942L12.1885 13.0236ZM12.0768 13.2295L11.8238 13.306L11.9003 13.5589L12.1532 13.4825L12.0768 13.2295ZM11.165 10.653L9.90623 11.0235L10.2768 12.2824L11.5356 11.9119L11.165 10.653ZM10.9885 10.9883L10.2415 11.206L10.4591 11.9471L11.2003 11.7294L10.9827 10.9883H10.9885ZM10.3651 13.0648L9.41211 13.3471L9.69444 14.3001L10.6474 14.0178L10.3651 13.0648ZM10.2238 13.3178L9.66507 13.4884L9.82977 14.0471L10.3885 13.8824L10.2238 13.3178Z" fill="#590577"/>
<path d="M12.6299 11.7474L13.3593 11.5356L13.571 12.2591L12.8415 12.4767L12.6299 11.7474Z" fill="#590577"/>
<path d="M12.8943 11.894L13.2119 11.8L13.3061 12.1176L12.9884 12.2118L12.8943 11.894Z" fill="#8D5F90"/>
<path fill-rule="evenodd" clip-rule="evenodd" d="M12 22C14.6522 22 17.1957 20.9464 19.0711 19.071C20.9464 17.1957 22 14.6522 22 12C22 9.34785 20.9464 6.80429 19.0711 4.92892C17.1957 3.05357 14.6522 2 12 2C9.34784 2 6.80429 3.05357 4.92892 4.92892C3.05357 6.80429 2 9.34785 2 12C2 14.6522 3.05357 17.1957 4.92892 19.071C6.80429 20.9464 9.34784 22 12 22ZM12 20.8235C14.1033 20.8236 16.1374 20.0724 17.7358 18.7053C19.3342 17.3381 20.3916 15.445 20.7175 13.3671C21.0435 11.2892 20.6163 9.16324 19.5132 7.37241C18.4101 5.58159 16.7036 4.24372 14.7012 3.59994C12.6989 2.95616 10.5325 3.04883 8.59236 3.86126C6.65231 4.67368 5.06626 6.1524 4.12013 8.03088C3.17401 9.90936 2.93002 12.064 3.43216 14.1065C3.9343 16.149 5.14953 17.9449 6.85882 19.1706C6.83971 19.1426 6.82722 19.1106 6.82227 19.0772C6.81731 19.0437 6.82004 19.0095 6.83024 18.9772C6.84044 18.9448 6.85784 18.9153 6.88114 18.8908C6.90443 18.8662 6.933 18.8473 6.9647 18.8353L7.11764 17.3235L9.92348 15.3824L10.0117 15.5L7.26469 17.4058L7.11764 18.8353C7.17459 18.8525 7.22238 18.8915 7.2505 18.9439C7.27864 18.9963 7.2848 19.0578 7.26763 19.1146C7.25047 19.1716 7.2114 19.2195 7.159 19.2475C7.10661 19.2756 7.04517 19.2818 6.98822 19.2646C8.46086 20.2831 10.2095 20.8269 12 20.8235ZM16.5765 4.82352C16.3706 5.22352 15.4647 6.04116 13.5176 6.14704L11.6176 8.28822L11.8 8.4647L13.453 6.52352C13.7882 6.86469 14.3471 7.40588 14.9235 7.92941L14.3 8.64704L14.4765 8.80587L15.0941 8.07646C15.5942 8.51764 16.094 8.91764 16.4589 9.12352L14.5177 11.6882L14.7059 11.8L16.7 9.23528C16.7176 9.17646 16.7353 8.94704 16.6529 8.5294C16.547 7.99998 16.4882 6.57058 17.4883 5.62353C17.3882 5.01175 16.8411 4.83529 16.5765 4.82352ZM8.87646 12.2942L9.00587 12.3765L7.24704 15.0706V16.1352C7.29694 16.1527 7.33905 16.1871 7.36593 16.2326C7.39281 16.2781 7.40273 16.3315 7.39392 16.3837C7.38511 16.4357 7.35814 16.483 7.3178 16.5171C7.27745 16.5513 7.22635 16.5699 7.17352 16.5699C7.1207 16.5699 7.06959 16.5513 7.02925 16.5171C6.9889 16.483 6.96194 16.4357 6.95313 16.3837C6.94432 16.3315 6.95422 16.2781 6.98111 16.2326C7.008 16.1871 7.05011 16.1527 7.09999 16.1352V15.0235L8.87646 12.2942ZM7.17058 16.4235C7.18196 16.4268 7.19394 16.4273 7.20558 16.4251C7.21722 16.4231 7.22819 16.4181 7.23764 16.411C7.24709 16.4038 7.25474 16.3946 7.26003 16.3841C7.26531 16.3735 7.26806 16.3618 7.26806 16.35C7.26806 16.3381 7.26531 16.3264 7.26003 16.3159C7.25474 16.3053 7.24709 16.2961 7.23764 16.289C7.22819 16.2818 7.21722 16.277 7.20558 16.2748C7.19394 16.2726 7.18196 16.2732 7.17058 16.2765C7.1546 16.281 7.14055 16.2906 7.13053 16.3039C7.12052 16.3172 7.11512 16.3333 7.11512 16.35C7.11512 16.3667 7.12052 16.3827 7.13053 16.396C7.14055 16.4093 7.1546 16.4189 7.17058 16.4235ZM7.11764 19.0471C7.12089 19.0584 7.12146 19.0704 7.11929 19.0821C7.11712 19.0936 7.11229 19.1046 7.10516 19.1141C7.09803 19.1236 7.0888 19.1312 7.07821 19.1365C7.06762 19.1418 7.05594 19.1446 7.04411 19.1446C7.03227 19.1446 7.0206 19.1418 7.01001 19.1365C6.99941 19.1312 6.99019 19.1236 6.98306 19.1141C6.97594 19.1046 6.97109 19.0936 6.96893 19.0821C6.96677 19.0704 6.96733 19.0584 6.97059 19.0471C6.97514 19.031 6.98479 19.017 6.99806 19.007C7.01132 18.997 7.02749 18.9915 7.04411 18.9915C7.06073 18.9915 7.07689 18.997 7.09016 19.007C7.10343 19.017 7.11307 19.031 7.11764 19.0471ZM12.4352 14.6294L10.4588 16.9706L8.54116 18.1529V18.1882C8.54078 18.2395 8.52273 18.2892 8.49007 18.3288C8.4574 18.3684 8.41209 18.3956 8.36176 18.4057C8.31144 18.4159 8.25916 18.4083 8.2137 18.3844C8.16826 18.3606 8.13241 18.3217 8.11219 18.2746C8.09197 18.2274 8.08861 18.1747 8.10266 18.1253C8.11672 18.0759 8.14734 18.0329 8.18939 18.0034C8.23144 17.974 8.28234 17.9599 8.33354 17.9636C8.38475 17.9672 8.43315 17.9885 8.47057 18.0235L10.3589 16.8529L12.3235 14.5294L12.4352 14.6294ZM8.31763 18.2647C8.32902 18.2679 8.34099 18.2685 8.35263 18.2664C8.36427 18.2642 8.37525 18.2594 8.38469 18.2523C8.39414 18.2451 8.40181 18.2359 8.40708 18.2252C8.41236 18.2146 8.41511 18.203 8.41511 18.1912C8.41511 18.1794 8.41236 18.1677 8.40708 18.157C8.40181 18.1464 8.39414 18.1372 8.38469 18.1301C8.37525 18.123 8.36427 18.1182 8.35263 18.116C8.34099 18.1138 8.32902 18.1143 8.31763 18.1176C8.30165 18.1221 8.2876 18.1319 8.27759 18.1451C8.26759 18.1584 8.26217 18.1746 8.26217 18.1912C8.26217 18.2078 8.26759 18.224 8.27759 18.2372C8.2876 18.2505 8.30165 18.2601 8.31763 18.2647Z" fill="#590080"/>
</svg>

<svg xmlns="http://www.w3.org/2000/svg" width="24" height="24" fill="none" viewBox="0 0 24 24">
    <path fill="#590577" d="m11.36 9.241.982-.294.294.988-.988.288z"/>
    <path fill="#8D5F90" d="M11.612 9.377 12.2 9.2l.176.589-.588.176z"/>
    <path fill="#590577" d="m13.288 9.835.577-.17.17.576-.576.17z"/>
    <path fill="#8D5F90" d="m13.5 9.953.252-.077.077.253-.253.077z"/>
    <path fill="#590577" fill-rule="evenodd" d="m12.189 13.024-.577.164.177.577.57-.17zm-.112.206-.253.076.076.253.253-.076zm-.912-2.577-1.259.37.37 1.26 1.26-.371zm-.176.335-.748.218.218.741.741-.218-.217-.74zm-.624 2.077-.953.282.282.953.953-.282zm-.141.253-.559.17.165.56.559-.166z" clip-rule="evenodd"/>
    <path fill="#590577" d="m12.63 11.747.73-.211.211.723-.73.218z"/>
    <path fill="#8D5F90" d="m12.894 11.894.318-.094.094.318-.318.094z"/>
    <path fill="#590080" fill-rule="evenodd" d="M12 22a10 10 0 1 0 0-20 10 10 0 0 0 0 20m0-1.177a8.824 8.824 0 1 0-5.141-1.652.224.224 0 0 1 .106-.336l.153-1.512 2.805-1.94.089.117-2.747 1.906-.147 1.43a.224.224 0 1 1-.13.429A8.8 8.8 0 0 0 12 20.823m4.576-16c-.205.4-1.111 1.218-3.058 1.324l-1.9 2.141.182.177 1.653-1.941c.335.34.894.882 1.47 1.405l-.623.718.176.159.618-.73c.5.442 1 .842 1.365 1.048l-1.941 2.564.188.112L16.7 9.235c.018-.059.035-.288-.047-.706-.106-.529-.165-1.958.835-2.905-.1-.612-.647-.789-.912-.8m-7.7 7.471.13.082-1.759 2.695v1.064a.224.224 0 1 1-.147 0v-1.112zm-1.705 4.13a.08.08 0 0 0 .067-.013.08.08 0 0 0 .03-.061.076.076 0 0 0-.062-.075.076.076 0 0 0-.09.075.08.08 0 0 0 .055.073m-.053 2.623a.076.076 0 1 1-.147.042.076.076 0 0 1 .147-.042m5.317-4.418-1.976 2.342-1.918 1.182v.035a.224.224 0 1 1-.07-.165l1.888-1.17 1.964-2.324zm-4.117 3.636a.08.08 0 0 0 .067-.013.077.077 0 1 0-.067.013" clip-rule="evenodd"/>
</svg>
